X: 2
T: Up Downey
R: reel
M: 4/4
L: 1/8
K: Emin
|:e|gfeg fegf|egfe a3b|gfeg fegf|egfe B3e|
gfeg fegf|egfe a3g|ba (3gab agfB|egfd e3:|
B|EFGA B2dB|BAGB AGFB|EFGA Bdef|gfed eaa2 |
EFGA ~B3d|BAGB AGFB|EFGA Bded|BAGB E3:|

%%newpage
%% header "Lisa is Extra		$P"

